resources/svg/auction-fill.svg

<svg fill="currentColor" viewBox="0 0 24 24" xmlns="http://www.w3.org/2000/svg"><path d="M14.0049 20.0027V22.0027H2.00488V20.0027H14.0049ZM14.5907 0.688965L22.3688 8.46714L20.9546 9.88135L19.894 9.5278L17.4191 12.0027L23.076 17.6595L21.6617 19.0737L16.0049 13.4169L13.6007 15.821L13.8836 16.9524L12.4693 18.3666L4.69117 10.5885L6.10539 9.17425L7.23676 9.45709L13.53 3.16384L13.1765 2.10318L14.5907 0.688965Z"/></svg>

<svg xmlns="http://www.w3.org/2000/svg" viewBox="0 0 24 24" fill="currentColor">
    <g>
        <path fill="none" d="M0 0h24v24H0z"/>
        <path d="M14 20v2H2v-2h12zM14.586.686l7.778 7.778L20.95 9.88l-1.06-.354L17.413 12l5.657 5.657-1.414 1.414L16 13.414l-2.404 2.404.283 1.132-1.415 1.414-7.778-7.778 1.415-1.414 1.13.282 6.294-6.293-.353-1.06L14.586.686z"/>
    </g>
</svg>
